source/images/icons/icon-editorial/signalisation.svg

<?xml version="1.0" encoding="UTF-8"?>
<svg width="80px" height="80px" viewBox="0 0 80 80" version="1.1" xmlns="http://www.w3.org/2000/svg" xmlns:xlink="http://www.w3.org/1999/xlink">
    <!-- Generator: Sketch 55.2 (78181) - https://sketchapp.com -->
    <title>Illustrative Icons/Signalisation</title>
    <desc>Created with Sketch.</desc>
    <g id="Illustrative-Icons/Signalisation" stroke="none" stroke-width="1" fill="none" fill-rule="evenodd">
        <path d="M39.5874407,33.511258 C39.818864,33.3898834 40.0821002,33.3208784 40.361433,33.3200082 L44.8754955,33.3059457 C45.5442455,33.3038624 45.5442455,33.3038624 45.7166667,33.3033334 C48.2403082,33.3033334 50.3133334,35.4009399 50.3133334,37.8833334 C50.3133334,39.570897 49.3552932,41.0806332 47.9506,41.8744174 L51.8301285,45.7539459 C52.9786402,44.1274634 53.6533334,42.1425232 53.6533334,40 C53.6533334,34.4845164 49.1821504,30.0133334 43.6666667,30.0133334 C41.5241435,30.0133334 39.5392034,30.6880265 37.9127209,31.8365382 L39.5874407,33.511258 Z M42.74877,36.6725874 L45.1812097,39.105027 L45.7166667,39.1033334 C46.3757075,39.1033334 46.9533334,38.5188582 46.9533334,37.8833334 C46.9533334,37.2478085 46.3757075,36.6633252 45.7219004,36.6633252 L42.74877,36.6725874 Z M43.7600177,42.4695337 L42.0466667,42.4749557 L42.0466667,45 C42.0466667,45.9278384 41.294505,46.68 40.3666667,46.68 C39.4388284,46.68 38.6866667,45.9278384 38.6866667,45 L38.6866667,37.3961827 L35.5170212,34.2265374 C34.360106,35.8566464 33.68,37.8488995 33.68,40 C33.68,45.5154837 38.151183,49.9866667 43.6666667,49.9866667 C45.8177672,49.9866667 47.8100204,49.3065607 49.4401294,48.1496455 L43.7600177,42.4695337 Z M20.3333333,58.5831726 L20.3333333,68.3333334 C20.3333333,69.2500001 19.5833333,70 18.6666667,70 C17.75,70 17,69.2500001 17,68.3333334 L17,11.6666667 C17,10.75 17.75,10 18.6666667,10 C19.5833333,10 20.3333333,10.75 20.3333333,11.6666667 L20.3333333,24.7475042 C20.4519462,23.9424112 21.1514357,23.3333334 21.9833333,23.3333334 C22.834774,23.3333334 23.5424228,23.9803974 23.6388182,24.8070639 C23.6383057,23.6641979 23.6378247,22.5954737 23.637383,21.6168392 C23.6370657,20.9142118 23.6370657,20.9142118 23.636854,20.4468792 C23.6366993,20.1057427 23.6366993,20.1057427 23.6366667,20.0333333 C23.6366667,15.9174238 25.9803433,13.4717247 30.0581432,13.3731018 C30.1424135,13.3600863 30.2287515,13.3533333 30.3166667,13.3533333 L56.9583167,13.3533539 C61.2273206,13.3744876 63.6300001,15.8194252 63.6300001,20.0666667 C63.6300001,20.994505 62.8778384,21.7466667 61.9500001,21.7466667 C61.0221617,21.7466667 60.2700001,20.994505 60.2700001,20.0666667 C60.2700001,17.6593017 59.3520879,16.7252455 56.95,16.7133333 L30.5542304,16.7133333 C30.4766217,16.7243183 30.3973077,16.73 30.3166667,16.73 C27.940875,16.73 26.9966667,17.68129 26.9966665,20.03257 C26.996699,20.1042183 26.996699,20.1042183 26.9968537,20.4453572 C26.9970653,20.9126923 26.9970653,20.9126923 26.9973827,21.6153223 C26.9979523,22.8772873 26.998587,24.289057 26.9992707,25.8164357 C27.0012238,30.1803747 27.003177,34.5963974 27.0049998,38.7909365 C27.0052973,39.4759055 27.0052973,39.4759055 27.0055943,40.1618185 C27.0104538,51.3921757 27.0133333,58.6512449 27.0133333,60.0500001 C27.0133333,62.4340629 27.95629,63.3700001 30.3333334,63.3700001 L57,63.3700001 C59.4081266,63.3700001 60.3366667,62.4529802 60.3366672,60.0680597 C60.3366097,59.9985906 60.3366097,59.9985906 60.3363312,59.6685576 C60.3360551,59.3428627 60.3357311,58.9650551 60.3353612,58.5394774 C60.3343047,57.3235352 60.3330946,55.9686257 60.3317496,54.5094916 C60.3279069,50.3405447 60.3237557,46.1716014 60.3194491,42.2806105 C60.3138714,37.2411499 60.3084481,33.0484509 60.3033357,29.986138 C60.3017867,29.058301 61.0526916,28.3048847 61.9805287,28.3033357 C62.9083657,28.3017867 63.6617821,29.0526915 63.6633311,29.9805287 C63.6684447,33.0436044 63.6738687,37.2368532 63.6794471,42.2768917 C63.6837539,46.1681139 63.6879054,50.3372561 63.6917482,54.5063946 C63.6930931,55.9655904 63.6943034,57.3205587 63.6953599,58.5365581 C63.6957297,58.9621599 63.6960539,59.3399912 63.6966667,59.6657094 C63.6966667,59.9957747 63.6966667,59.9957747 63.6966667,60.0666667 C63.6966667,64.3181117 61.2544782,66.7300001 57,66.7300001 L30.3333334,66.7300001 C26.10621,66.7300001 23.6533333,64.2953831 23.6533333,60.0500001 C23.6533333,58.6520234 23.6504537,51.3923366 23.6455947,40.1632725 C23.6452977,39.4773627 23.6452977,39.4773627 23.6450002,38.7923969 C23.6431772,34.5978735 23.6412242,30.181865 23.639271,25.8179394 C23.6391767,25.6073325 23.6390833,25.3989239 23.638991,25.1928029 C23.542072,26.0364699 22.8170183,26.6976732 21.9333333,26.6666667 C21.1341808,26.6512984 20.4483972,26.0265722 20.3333333,25.2498392 L20.3333333,58.0808376 C20.4519462,57.2757446 21.1514357,56.6666667 21.9833333,56.6666667 C22.9,56.6666667 23.65,57.4166667 23.65,58.3333334 C23.65,59.2666667 22.8833333,60.0333334 21.9333333,60 C21.1341808,59.9846317 20.4483972,59.3599056 20.3333333,58.5831726 Z M43.6666667,53.3466667 C36.2955062,53.3466667 30.32,47.3711605 30.32,40 C30.32,32.6288395 36.2955062,26.6533334 43.6666667,26.6533334 C51.0378272,26.6533334 57.0133334,32.6288395 57.0133334,40 C57.0133334,47.3711605 51.0378272,53.3466667 43.6666667,53.3466667 Z M63.6333334,25 C63.6333334,25.9333334 62.8666667,26.7 61.9166667,26.6666667 C61.0500001,26.65 60.3166667,25.9166667 60.3000001,25.05 C60.2666667,24.1 61.0333334,23.3333334 61.9666667,23.3333334 C62.8833334,23.3333334 63.6333334,24.0833334 63.6333334,25 Z" id="Shape-color" fill="#ADB5BD"></path>
    </g>
</svg>

<svg width="80" height="80">
    <title>
        Illustrative Icons/Signalisation
    </title>
    <path d="M39.587 33.511c.232-.121.495-.19.774-.191l4.514-.014.842-.003c2.523 0 4.596 2.098 4.596 4.58 0 1.688-.958 3.198-2.362 3.991l3.88 3.88A9.941 9.941 0 0 0 53.652 40c0-5.515-4.47-9.987-9.986-9.987a9.941 9.941 0 0 0-5.754 1.824l1.674 1.674zm3.162 3.162l2.432 2.432.536-.002c.659 0 1.236-.584 1.236-1.22 0-.635-.577-1.22-1.231-1.22l-2.973.01zm1.011 5.797l-1.713.005V45a1.68 1.68 0 0 1-3.36 0v-7.604l-3.17-3.17A9.941 9.941 0 0 0 33.68 40c0 5.515 4.471 9.987 9.987 9.987 2.15 0 4.143-.68 5.773-1.837l-5.68-5.68zM20.333 58.583v9.75c0 .917-.75 1.667-1.666 1.667C17.75 70 17 69.25 17 68.333V11.667c0-.917.75-1.667 1.667-1.667.916 0 1.666.75 1.666 1.667v13.08a1.665 1.665 0 0 1 1.65-1.414c.852 0 1.56.647 1.656 1.474l-.002-3.19v-1.17-.414c0-4.116 2.343-6.561 6.421-6.66.084-.013.17-.02.259-.02h26.641c4.27.021 6.672 2.466 6.672 6.714a1.68 1.68 0 0 1-3.36 0c0-2.408-.918-3.342-3.32-3.354H30.554a1.694 1.694 0 0 1-.237.017c-2.376 0-3.32.951-3.32 3.303V21.615a1133590.748 1133590.748 0 0 1 .008 17.176v1.37l.008 19.889c0 2.384.943 3.32 3.32 3.32H57c2.408 0 3.337-.917 3.337-3.302v-.4a52949.679 52949.679 0 0 0-.034-29.682 1.68 1.68 0 0 1 3.36-.005 67029.278 67029.278 0 0 1 .032 28.556l.002 1.129v.4c0 4.252-2.443 6.664-6.697 6.664H30.333c-4.227 0-6.68-2.435-6.68-6.68l-.007-19.887-.001-1.37-.006-12.975v-.625a1.66 1.66 0 0 1-1.706 1.474c-.799-.016-1.485-.64-1.6-1.417v32.83a1.665 1.665 0 0 1 1.65-1.413c.917 0 1.667.75 1.667 1.666 0 .934-.767 1.7-1.717 1.667-.799-.015-1.485-.64-1.6-1.417zm23.334-5.236C36.296 53.347 30.32 47.37 30.32 40c0-7.371 5.976-13.347 13.347-13.347 7.37 0 13.346 5.976 13.346 13.347 0 7.371-5.975 13.347-13.346 13.347zM63.633 25c0 .933-.766 1.7-1.716 1.667A1.675 1.675 0 0 1 60.3 25.05a1.662 1.662 0 0 1 1.667-1.717c.916 0 1.666.75 1.666 1.667z" fill="#ADB5BD" fill-rule="evenodd"/>
</svg>
